X:19
T:the Lad's Dance
M:6/8
A:North-West
R:Jig
Z:Richard Robinson <richard@beulah.demon.co.uk>
%%RR_OriginalCollection: 
%%RR_Export:Yes
O:England
%%ID:00/00/04/d7
K:D
B|\
AFD DFD| DFA B2A| Bcd AGF| GEE E2B| \
AFD DFD| DFA B2A| Bcd edc| d3 d2::
g|\
faf d2g| faf d2A| Bcd AGF| GEE E2g|\
faf d2g| faf d2A| Bcd edc| d3 d2:|
